logo/deno.svg

<?xml version="1.0" encoding="UTF-8"?>
<svg width="256px" height="256px" viewBox="0 0 256 256" version="1.1" xmlns="http://www.w3.org/2000/svg" xmlns:xlink="http://www.w3.org/1999/xlink" preserveAspectRatio="xMidYMid">
    <title>deno</title>
    <g>
        <path d="M128,0 C198.692448,0 256,57.307552 256,128 C256,198.692448 198.692448,256 128,256 C57.307552,256 0,198.692448 0,128 C0,57.307552 57.307552,0 128,0 Z" fill="#000000"></path>
        <path d="M123,72.45 C140.9,72.45 156.25,77.4 168.35,86.85 C178.53427,94.8095506 186.02999,105.750947 189.967158,118.127518 L190.1,118.55 L190.2,118.85 L190.3,119.2 L190.5,119.85 L190.8,121.05 L191.6,123.85 L192.45,127.05 L196.2,140.75 L199.9,154.55 L204.1,170.25 L210.85,195.5 L213.4,205 L212.85,205.6 C195.228,224.8555 171.13734,238.083385 144.022581,241.887609 L143.2,242 L142.95,240.35 L142.5,237.05 L142.1,234.65 L141.65,231.5 L141.05,227.65 L140.8,226.15 L140.25,222.5 L139.9,220.35 L139.45,217.55 L139,214.85 L138.55,212.25 L138.1,209.7 L137.7,207.2 L137.25,204.8 L136.85,202.5 L136.55,200.8 L136.2,199.15 L135.6,196 L135.3,194.5 L134.95,192.65 L134.65,191.35 L134.4,190.1 L134.15,188.9 L134,188.1 L133.65,186.6 L133.15,184.4 L132.95,183.7 L132.7,182.7 L132.5,181.75 L132.25,180.8 L132,179.9 L131.85,179.35 L131.6,178.5 L131.4,177.7 L131.25,177.15 L131.05,176.65 L130.9,176.2 L130.7,175.5 L130.55,175 L130.45,174.7 C130.233701,174.064511 129.998305,173.435724 129.744139,172.814493 L129.55,172.35 L129.4,172.05 L130.55,169.05 L126,169.2 L124.75,169.25 C83.45,170.1 56.8,152.55 56.8,125.05 C56.8,95.9 85.8,72.45 123,72.45 Z M82.7,210.15 C83.6353846,206.95 86.9459645,205.058781 90.149903,205.860444 L90.3,205.9 C93.5492308,206.736923 95.4896805,209.997515 94.7849755,213.247666 L94.75,213.4 L94.7,213.55 L88.65,236.1 L87.8,235.75 C84.4211562,234.489681 81.1039813,233.070289 77.8595783,231.496627 L77.05,231.1 L82.65,210.3 L82.7,210.15 Z M117.5,194.9 C118.45,191.65 121.85,189.75 125.15,190.65 C126.774584,191.093923 128.148687,192.173836 128.964718,193.6413 L129.05,193.8 L129.25,194.7 L129.55,196.15 L129.75,197.2 L129.7,197.45 L129.55,198.15 L129.55,198.3 L121.05,229.8 L121,229.95 C119.959312,233.098987 116.640224,234.886807 113.438147,234.023176 C110.286103,233.17304 108.327972,230.045093 108.919881,226.852088 L108.95,226.7 L108.95,226.55 L117.45,195.05 L117.5,194.9 Z M65.9,158.2 C68.924,160.84 72.4088,163.2496 76.2216896,165.29609 L76.7,165.55 L69,194.15 L68.95,194.3 C67.9557919,197.524745 64.5812647,199.377979 61.3265801,198.486655 C58.1219675,197.609043 56.1730549,194.382738 56.8655971,191.151461 L56.9,191 L56.95,190.85 L65.45,159.35 L65.5,159.15 L65.9,158.2 Z M38,126.2 C38.95,123 42.35,121.1 45.65,121.95 C48.85,122.836154 50.7896923,126.097503 50.0849757,129.347666 L50.05,129.5 L50.05,129.65 L41.55,161.15 L41.5,161.3 C40.5057919,164.524745 37.1312647,166.377979 33.8765801,165.486655 C30.6719675,164.609043 28.7230549,161.382738 29.4155971,158.151461 L29.45,158 L29.45,157.85 L37.95,126.35 L38,126.2 Z M228.6,119.05 C229.55,115.85 232.95,113.95 236.2,114.8 C239.449231,115.686154 241.38968,118.947503 240.684976,122.149938 L240.65,122.3 L240.65,122.5 L232.1,154 L232.1,154.15 C231.18873,157.491323 227.741323,159.46127 224.4,158.55 C221.108548,157.652331 219.14784,154.293665 219.961117,150.999674 L220,150.85 L220.05,150.7 L228.55,119.2 L228.6,119.05 Z M27.1,72.75 L27.3167452,72.756545 C27.7497911,72.777027 28.1797939,72.8418122 28.6,72.95 C31.8492308,73.8361538 33.7896805,77.097503 33.0849755,80.3476659 L33.05,80.5 L33,80.65 L24.5,112.15 L24.45,112.3 C23.5,115.5 20.1,117.4 16.85,116.55 C15.6500079,116.240702 14.5702336,115.578904 13.75,114.65 C15.4182117,100.169746 19.8428224,86.1447884 26.7828143,73.3315813 L27.1,72.75 Z M207.05,77.2 C208.05,74 211.4,72.1 214.7,72.95 C217.9,73.8361538 219.888166,77.097503 219.184941,80.3476659 L219.15,80.5 L219.1,80.65 L210.6,112.15 L210.55,112.3 C209.555792,115.524745 206.181265,117.377979 202.92658,116.486655 C199.721968,115.609043 197.773055,112.382738 198.465597,109.151461 L198.5,109 L198.55,108.85 L207.05,77.35 L207.05,77.2 Z M56.5,47.25 C57.45,44.05 60.85,42.15 64.1,43 C67.3492308,43.8861538 69.2896805,47.147503 68.5849755,50.3499383 L68.55,50.5 L68.5,50.7 L60,82.2 L59.95,82.35 C58.9557919,85.5747452 55.5812647,87.427979 52.3265801,86.5366546 C49.1219675,85.6590429 47.1730549,82.432738 47.8655971,79.2014608 L47.9,79.05 L47.95,78.9 L56.45,47.4 L56.5,47.25 Z M165.7,53.2 C166.65,50 170.05,48.1 173.35,48.95 C176.55,49.8361538 178.489692,53.097503 177.784976,56.3476659 L177.75,56.5 L177.75,56.65 L171.05,81.4 L170.5,80.95 C167.363246,78.6456019 164.039953,76.6072684 160.564827,74.8560532 L159.95,74.55 L165.65,53.35 L165.7,53.2 Z M117.75,13.45 C117.933018,14.3088654 117.931344,15.1960389 117.746025,16.052842 L117.7,16.25 L117.65,16.4 L109.15,47.9 L109.1,48.05 C108.059312,51.1989872 104.740224,52.9868069 101.538147,52.1231763 C98.3861033,51.2730399 96.4279719,48.1450929 97.019881,44.9520882 L97.05,44.8 L97.1,44.65 L105,15.3 L105.85,15.15 C109.784302,14.3761735 113.756399,13.8087312 117.75,13.45 Z M195.95,35.2 L196.7,35.75 C199.904823,38.144249 202.98305,40.7031261 205.922294,43.4162574 L206.55,44 L206.35,44.65 L206.3,44.8 C205.259312,47.9489872 201.940224,49.7368069 198.738147,48.8731763 C195.586103,48.0230399 193.627972,44.8950929 194.219881,41.7020882 L194.25,41.55 L194.3,41.4 L195.95,35.2 Z M146.5,14.5 L147.4,14.65 C150.913661,15.2425994 154.397528,15.9991543 157.840198,16.9171415 L158.7,17.15 L155.55,28.9 L155.5,29.05 C154.459312,32.1989872 151.140224,33.9868069 147.938147,33.1231763 C144.786103,32.2730399 142.827972,29.1450929 143.419881,25.9520882 L143.45,25.8 L143.5,25.65 L146.5,14.5 Z" fill="#FFFFFF"></path>
        <path d="M131,93.5 C135.418278,93.5 139,97.081722 139,101.5 C139,105.918278 135.418278,109.5 131,109.5 C126.581722,109.5 123,105.918278 123,101.5 C123,97.081722 126.581722,93.5 131,93.5 Z" fill="#000000"></path>
    </g>
</svg>

<svg viewBox="0 0 256 256" xmlns="http://www.w3.org/2000/svg"><path d="M128 0c70.69 0 128 57.3 128 128 0 70.69-57.31 128-128 128C57.3 256 0 198.69 0 128 0 57.3 57.3 0 128 0Z"/><path fill="#FFF" d="M123 72.45c17.9 0 33.25 4.95 45.35 14.4 10.18 7.95 17.67 18.9 21.61 31.27l.13.42 .1.3 .1.35 .2.65 .3 1.2 .8 2.8 .85 3.2 3.75 13.7 3.7 13.8 4.2 15.7 6.75 25.25 2.55 9.5 -.55.6c-17.63 19.25-41.72 32.48-68.83 36.28l-.83.11 -.25-1.65 -.45-3.3 -.4-2.4 -.45-3.15 -.6-3.85 -.25-1.5 -.55-3.65 -.35-2.15 -.45-2.8 -.45-2.7 -.45-2.6 -.45-2.55 -.4-2.5 -.45-2.4 -.4-2.3 -.3-1.7 -.35-1.65 -.6-3.15 -.3-1.5 -.35-1.85 -.3-1.3 -.25-1.25 -.25-1.2 -.15-.8 -.35-1.5 -.5-2.2 -.2-.7 -.25-1 -.2-.95 -.25-.95 -.25-.9 -.15-.55 -.25-.85 -.2-.8 -.15-.55 -.2-.5 -.15-.45 -.2-.7 -.15-.5 -.1-.3c-.22-.64-.46-1.27-.71-1.89l-.2-.47 -.15-.3 1.15-3 -4.55.15 -1.25.05c-41.3.85-67.95-16.7-67.95-44.2 0-29.15 29-52.6 66.2-52.6Zm-40.3 137.7c.93-3.2 4.24-5.1 7.44-4.29l.15.03c3.24.83 5.18 4.09 4.48 7.34l-.04.15 -.05.15 -6.05 22.55 -.85-.35c-3.38-1.27-6.7-2.68-9.95-4.26l-.81-.4 5.6-20.8 .05-.15Zm34.8-15.25c.95-3.25 4.35-5.15 7.65-4.25 1.62.44 2.99 1.52 3.81 2.99l.08.15 .2.9 .3 1.45 .2 1.05 -.05.25 -.15.7v.15l-8.5 31.5 -.05.15c-1.05 3.14-4.36 4.93-7.57 4.07 -3.16-.86-5.12-3.98-4.52-7.18l.03-.16v-.15l8.5-31.5 .05-.15Zm-51.6-36.7c3.02 2.64 6.5 5.04 10.32 7.09l.47.25 -7.7 28.6 -.05.15c-1 3.22-4.37 5.07-7.63 4.18 -3.21-.88-5.16-4.11-4.47-7.34l.03-.16 .05-.15 8.5-31.5 .05-.2 .4-.95Zm-27.9-32c.95-3.2 4.35-5.1 7.65-4.25 3.2.88 5.13 4.14 4.43 7.39l-.04.15v.15l-8.5 31.5 -.05.15c-1 3.22-4.37 5.07-7.63 4.18 -3.21-.88-5.16-4.11-4.47-7.34l.03-.16v-.15l8.5-31.5 .05-.15Zm190.6-7.15c.95-3.2 4.35-5.1 7.6-4.25 3.24.88 5.18 4.14 4.48 7.34l-.04.15v.2l-8.55 31.5v.15c-.92 3.34-4.36 5.31-7.7 4.4 -3.3-.9-5.26-4.26-4.44-7.56l.03-.15 .05-.15 8.5-31.5 .05-.15ZM27.1 72.75l.21 0c.43.02.86.08 1.28.19 3.24.88 5.18 4.14 4.48 7.39l-.04.15 -.05.15 -8.5 31.5 -.05.15c-.95 3.2-4.35 5.1-7.6 4.25 -1.2-.31-2.28-.98-3.1-1.9 1.66-14.49 6.09-28.51 13.03-41.32l.31-.59Zm179.95 4.45c1-3.2 4.35-5.1 7.65-4.25 3.2.88 5.18 4.14 4.48 7.39l-.04.15 -.05.15 -8.5 31.5 -.05.15c-1 3.22-4.37 5.07-7.63 4.18 -3.21-.88-5.16-4.11-4.47-7.34l.03-.16 .05-.15 8.5-31.5v-.15ZM56.5 47.25c.95-3.2 4.35-5.1 7.6-4.25 3.24.88 5.18 4.14 4.48 7.34l-.04.15 -.05.2 -8.5 31.5 -.05.15c-1 3.22-4.37 5.07-7.63 4.18 -3.21-.88-5.16-4.11-4.47-7.34l.03-.16 .05-.15 8.5-31.5 .05-.15Zm109.2 5.95c.95-3.2 4.35-5.1 7.65-4.25 3.2.88 5.13 4.14 4.43 7.39l-.04.15v.15l-6.7 24.75 -.55-.45c-3.14-2.31-6.47-4.35-9.94-6.1l-.62-.31 5.7-21.2 .05-.15Zm-47.95-39.75c.18.85.18 1.74-.01 2.6l-.05.19 -.05.15 -8.5 31.5 -.05.15c-1.05 3.14-4.36 4.93-7.57 4.07 -3.16-.86-5.12-3.98-4.52-7.18l.03-.16 .05-.15 7.9-29.35 .85-.15c3.93-.78 7.9-1.35 11.9-1.7Zm78.2 21.75l.75.55c3.2 2.39 6.28 4.95 9.22 7.66l.62.58 -.2.65 -.05.15c-1.05 3.14-4.36 4.93-7.57 4.07 -3.16-.86-5.12-3.98-4.52-7.18l.03-.16 .05-.15 1.65-6.2ZM146.5 14.5l.9.15c3.51.59 6.99 1.34 10.44 2.26l.85.23 -3.15 11.75 -.05.15c-1.05 3.14-4.36 4.93-7.57 4.07 -3.16-.86-5.12-3.98-4.52-7.18l.03-.16 .05-.15 3-11.15Z"/><path d="M131 93.5c4.41 0 8 3.58 8 8 0 4.41-3.59 8-8 8 -4.42 0-8-3.59-8-8 0-4.42 3.58-8 8-8Z"/></svg>
